X:1
T:You Belong To Me
T:You Belong To Me
C:Pee Wee King, Redd Stewart, Chilton Price
Z:All Rights Reserved
L:1/8
M:12/8
K:C
V:1 treble nm="Voice"
%%MIDI program 52
V:1
 z3"C" c2 d e2 d c2 e |"Em" B3- B2 G"B+" B6 |"F" z3 A2 B c2 B A2 c |"C" G3 A3"A7" G6 | %4
w: See the py- ra- mids a-|long * the Nile,|watch the sun- rise on a|tro- pic isle|
"F" z2 z F2 G"Fm" F2 E D2 F |"Em" E3 G3"Am" c6 |"Fmaj7" z2 z e2 d"Dm7" c3 d3 |"G7" G8-"G+" G4 | %8
w: just re- mem- ber dar- ling,|all the while|you be- long to|me. *|
"C" z2 z c2 d e2 d c2 e |"Em" B3- B2 G"B+" B6 |"F" z3 A2 B c2 B"Fm" A2 c |"C" G3 A3"A7" G6 | %12
w: See the mark- et- place in|old Al- giers, *|send me pho- to- graphs and|sou- ven- irs,|
"F" z2 z F2 G"Fm" F2 E D2 F |"Em" E3 G3"Am" c6 |"Dm" z2 z e2 d"Dm7" c3"G7" d3 |"C" c8- c4 | %16
w: just re- mem- ber when a|dream ap- pears,|you be- long to|me. *|
"C" c2 G ^F2 G"C7" d3 c3 | _B6"F" A6 |"Dm" d2 A ^G2 A"Fmaj7" e3"Dm7" d3 |"G" B6 d3"F" A3 | %20
w: I'll be so a- lone with-|out you,|may- be you'll be lone- some|too, and blue.|
"G7""G+" z12 |"C" z2 z c2 d e2 d c2 e |"Em" B3- B2 G"B+" B6 |"F" z3 A2 B c2 B A2 c | %24
w: |Fly the o- cean in a|sil- * ver plane,|see the jun- gle when it's|
"C" G3 A3"A7" G6 |"F" z2 z F2 G"Fm" F2 E D2 F |"Em" E3 G3"Am" c6 |"Dm" z2 z e2 d"Dm7" c3 d3 | %28
w: wet with rain,|just re- mem- ber till you're|home a- gain,|you be- long to|
"C" c8- c4 |] %29
w: me. *|

